src/assets/images/volume.svg

<?xml version="1.0"?>
<svg xmlns="http://www.w3.org/2000/svg" viewBox="0 0 512 512" width="512px" height="512px"><path d="m121 211h30v90h-30zm0 0" fill="#F14042"/><path d="m256 0c-140.609375 0-256 115.390625-256 256s115.390625 256 256 256 256-115.390625 256-256-115.390625-256-256-256zm45 436-139.988281-105h-70.011719v-150h70.011719l139.988281-105zm16.816406-148.183594c8.496094-8.496094 13.183594-19.789062 13.183594-31.816406s-4.6875-23.320312-13.183594-31.816406l21.210938-21.210938c14.164062 14.148438 21.972656 32.988282 21.972656 53.027344s-7.808594 38.878906-21.972656 53.027344zm63.648438 63.648438-21.210938-21.210938c40.941406-40.941406 40.941406-107.5625 0-148.507812l21.210938-21.210938c52.644531 52.632813 52.644531 138.296875 0 190.929688zm0 0" fill="#F14042"/><path d="m181 308.507812 90 67.492188v-240l-90 67.492188zm0 0" fill="#F14042"/></svg>

<?xml version="1.0" encoding="UTF-8"?>
<svg width="512px" height="512px" viewBox="0 0 512 512" version="1.1" xmlns="http://www.w3.org/2000/svg" xmlns:xlink="http://www.w3.org/1999/xlink">
    <!-- Generator: Sketch 63.1 (92452) - https://sketch.com -->
    <title>volume</title>
    <desc>Created with Sketch.</desc>
    <g id="Website" stroke="none" stroke-width="1" fill="none" fill-rule="evenodd">
        <g id="Home" transform="translate(-696.000000, -1278.000000)">
            <g id="volume" transform="translate(696.000000, 1278.000000)">
                <circle id="Oval" fill="#F2F3F4" cx="254" cy="256" r="209"></circle>
                <polygon id="Path" fill="#F14042" fill-rule="nonzero" points="121 211 151 211 151 301 121 301"></polygon>
                <path d="M256,0 C115.390625,0 0,115.390625 0,256 C0,396.609375 115.390625,512 256,512 C396.609375,512 512,396.609375 512,256 C512,115.390625 396.609375,0 256,0 Z M301,436 L161.011719,331 L91,331 L91,181 L161.011719,181 L301,76 L301,436 Z M317.816406,287.816406 C326.3125,279.320312 331,268.027344 331,256 C331,243.972656 326.3125,232.679688 317.816406,224.183594 L339.027344,202.972656 C353.191406,217.121094 361,235.960938 361,256 C361,276.039062 353.191406,294.878906 339.027344,309.027344 L317.816406,287.816406 Z M381.464844,351.464844 L360.253906,330.253906 C401.195312,289.3125 401.195312,222.691406 360.253906,181.746094 L381.464844,160.535156 C434.109375,213.167969 434.109375,298.832031 381.464844,351.464844 Z" id="Shape" fill="#F14042" fill-rule="nonzero"></path>
                <polygon id="Path" fill="#F14042" fill-rule="nonzero" points="181 308.507812 271 376 271 136 181 203.492188"></polygon>
            </g>
        </g>
    </g>
</svg>
